src/assets/svg/twitter.svg

<?xml version="1.0" encoding="UTF-8"?>
<svg width="24px" height="24px" viewBox="0 0 24 24" version="1.1" xmlns="http://www.w3.org/2000/svg" xmlns:xlink="http://www.w3.org/1999/xlink">
    <title>cd25c55e-4e89-45ff-bd87-b3b233f8473c@1.00x</title>
    <g id="Iconography" stroke="none" stroke-width="1" fill="none" fill-rule="evenodd">
        <g id="1.-Primitives/Icons/2.-Foreground-Secondary/Twitter" fill="#0062C3">
            <path d="M12,0 C18.627417,0 24,5.372583 24,12 C24,18.627417 18.627417,24 12,24 C5.372583,24 0,18.627417 0,12 C0,5.372583 5.372583,0 12,0 Z M15.076137,6 C13.2588799,6 11.7969367,7.35935956 11.7969367,9.02812881 C11.7969367,9.26250911 11.8274056,9.49686055 11.8781558,9.72186217 C9.1573639,9.59058958 6.73094817,8.39060978 5.11672311,6.55311095 C4.83244075,7.0031142 4.67003387,7.51873931 4.67003387,8.08122894 C4.67003387,9.13123652 5.24869238,10.0593502 6.13194583,10.6031113 C5.59391248,10.5843828 5.08625424,10.4437604 4.64972129,10.2187588 L4.64972129,10.2187588 L4.64972129,10.2562446 C4.64972129,11.7281194 5.77666319,12.9468566 7.27920031,13.2281303 C7.00510549,13.2937233 6.71066684,13.331238 6.41625944,13.331238 C6.20303986,13.331238 6,13.3124806 5.79694452,13.2843734 C6.21319615,14.4843821 7.42132586,15.3562526 8.8629565,15.3843886 C7.73604584,16.2000159 6.32485283,16.6781263 4.79187809,16.6781263 C4.51775202,16.6781263 4.26396978,16.6687476 4,16.6406404 C5.45178692,17.5031034 7.17766866,18 9.03555092,18 C15.0660432,18 18.3655249,13.3874812 18.3655249,9.38437417 C18.3655249,9.25313043 18.3655249,9.12185784 18.3553686,8.99061411 C18.9949648,8.55933936 19.5533733,8.02498575 20,7.42501028 C19.4111852,7.65936172 18.771589,7.82814901 18.1116801,7.89374202 C18.7918703,7.51876817 19.3096223,6.92814252 19.5533108,6.22500162 C18.9238395,6.5718683 18.2131805,6.82500595 17.4720839,6.95624968 C16.8730815,6.36562403 16.020297,6 15.076137,6 Z" id="Combined-Shape"></path>
        </g>
    </g>
</svg>

<svg width="24" height="24" xmlns="http://www.w3.org/2000/svg"><path d="M12 0c6.627 0 12 5.373 12 12s-5.373 12-12 12S0 18.627 0 12 5.373 0 12 0zm3.076 6c-1.817 0-3.28 1.36-3.28 3.028 0 .235.031.469.082.694-2.72-.131-5.147-1.331-6.761-3.169-.285.45-.447.966-.447 1.528 0 1.05.579 1.978 1.462 2.522a3.512 3.512 0 01-1.482-.384v.037c0 1.472 1.127 2.69 2.63 2.972a3.74 3.74 0 01-.864.103 4.47 4.47 0 01-.62-.047c.417 1.2 1.625 2.072 3.067 2.1a6.921 6.921 0 01-4.071 1.294c-.274 0-.528-.01-.792-.037A9.833 9.833 0 009.036 18c6.03 0 9.33-4.613 9.33-8.616 0-.13 0-.262-.01-.393A6.78 6.78 0 0020 7.425a7.008 7.008 0 01-1.888.469c.68-.375 1.198-.966 1.441-1.669-.63.347-1.34.6-2.08.731A3.403 3.403 0 0015.075 6z" /></svg>
